X:27
T:Moneymusk
T:Monymusk
R:highland
H:See also #26
D:Tom Doherty
Z:id:hn-hf-27
M:C|
L:1/8
K:A
eA (3cBA eAcd | eA (3cBA BFFd | eA (3cBA eAcf |1 feBd cAAc :|2 feBd cAA2 ||
|: ae (3cde fe (3cde | aece dcBA |1 ae (3cde fe (3cde |
faed cAA2 :|2 acgc fcec | defa a3f ||

